webroot/assets/grid/grid.svg

<svg xmlns="http://www.w3.org/2000/svg" width="1000" height="160"><path fill="#fff" d="M0 0h1000v160H0z"/><g fill="#00f" opacity=".05"><path d="M915 0h20v160h-20zM830 0h20v160h-20zM745 0h20v160h-20zM660 0h20v160h-20zM575 0h20v160h-20zM490 0h20v160h-20zM405 0h20v160h-20zM320 0h20v160h-20zM235 0h20v160h-20zM150 0h20v160h-20zM65 0h20v160H65z"/></g><g fill="red" opacity=".03"><path d="M935 0h65v160h-65zM850 0h65v160h-65zM765 0h65v160h-65zM680 0h65v160h-65zM595 0h65v160h-65zM510 0h65v160h-65zM425 0h65v160h-65zM340 0h65v160h-65zM255 0h65v160h-65zM170 0h65v160h-65zM85 0h65v160H85zM0 0h65v160H0z"/></g></svg>

<svg xmlns="http://www.w3.org/2000/svg" width="1000" height="160" viewBox="0 0 1000 160"><defs><style>.a{fill:#fff;}.b{opacity:0.05;}.c{fill:blue;}.d{opacity:0.03;}.e{fill:red;}</style></defs><path class="a" d="M0,0H1000V160H0Z"/><g class="b"><path class="c" d="M915,0h20V160H915ZM830,0h20V160H830ZM745,0h20V160H745ZM660,0h20V160H660ZM575,0h20V160H575ZM490,0h20V160H490ZM405,0h20V160H405ZM320,0h20V160H320ZM235,0h20V160H235ZM150,0h20V160H150ZM65,0H85V160H65Z"/></g><g class="d"><path class="e" d="M935,0h65V160H935ZM850,0h65V160H850ZM765,0h65V160H765ZM680,0h65V160H680ZM595,0h65V160H595ZM510,0h65V160H510ZM425,0h65V160H425ZM340,0h65V160H340ZM255,0h65V160H255ZM170,0h65V160H170ZM85,0h65V160H85ZM0,0H65V160H0Z"/></g></svg>
